dist/assets/img/nhl/teams/van.svg

<svg xmlns="http://www.w3.org/2000/svg" viewBox="0 0 24 16"><path fill="#99999A" d="M11.856 11.363l2.625-1.311c1.799.506 2.331 1.188 2.331 1.188l1.028-1.163c.058-.059.227-.271.227-.653 0-.412-.431-.731-.735-.947-.51-1.345-3.345-1.735-3.555-2.202-.068-.163-.483-1.561-.483-1.561-.247-.724-.975-.724-1.249-.724-.276 0-.867.093-.867.093 0 1.008-.138 2.237-.281 2.464 0 0-.511.267-1.112.483l-1.433-.967.377 1.304c-2.419 1.327-3.007 3.644-3.007 3.644s.621 4.879 6.74 4.879c3.235 0 5.101-1.562 5.101-1.562l-1.043-2.33s-1.592.827-3.625.827c-1.875 0-2.606-.874-2.876-1.383 1.587.046 1.837-.079 1.837-.079z"/><path d="M11.76 11.106l2.693-1.349c1.825.517 2.352 1.074 2.352 1.074l.834-.939s.154-.146.154-.469c0-.3-.451-.606-.692-.777-.497-1.351-3.255-1.598-3.56-2.233-.123-.256-.278-.866-.508-1.61-.185-.538-.721-.538-.988-.538-.26 0-.595.053-.595.053 0 .55-.103 2.147-.359 2.423-.062.082-.533.271-1.043.468l.152.103-.156.155-.293.297-.324 1.007-.421-.216.151.373-.751.125.425.148-1.223.939.33.026-.436.786c.63-.286.819-.339.819-.339l-.18-.186 1.268-.513s-.095.256-.095.747c0 .07.01.173.035.296.155.767.904 2.348 3.545 2.348 1.91 0 3.386-.669 3.386-.669l.686 1.531s-1.793 1.242-4.504 1.242c-5.545 0-6.248-4.36-6.248-4.36.764-2.044 2.05-2.939 2.868-3.318l-.255-.025-.023-.077C6.641 8.822 6.001 11.03 6.001 11.03s.656 4.587 6.46 4.587c2.968 0 4.762-1.376 4.762-1.376l-.839-1.877s-1.568.736-3.49.736c-2.862 0-3.285-1.953-3.285-1.953s1.631.098 2.151-.041zm5.788-1.44zM8.302 3.654l-.513-1.708L8.95 3.459l.37-.112-.847-2.82-.41.124.501 1.672L7.414.846l-.368.112.846 2.819zM9.659 3c.024.172.127.255.295.232l.91-.124c.171-.023.253-.132.229-.304l-.095-.721-.439.059.086.615-.565.077L9.782.666l.565-.077.08.577.434-.061-.093-.683c-.024-.172-.133-.254-.304-.231l-.91.125c-.166.022-.245.13-.221.303L9.659 3zm2.107.054l.955.016c.17.004.266-.09.27-.263l.043-2.404c.005-.175-.092-.272-.262-.275L11.817.11c-.168-.004-.263.092-.264.264l-.046 2.404c-.001.175.088.271.259.276zM11.988.49l.607.01-.04 2.19-.606-.012.039-2.188zm1.666 2.672l.92.165c.172.031.285-.047.316-.218l.469-2.632L14.926.4l-.451 2.526-.584-.103.45-2.527-.431-.078-.469 2.632c-.033.171.043.281.213.312zm3.492.624l.395-.836.599.284.163-.343-.6-.285.369-.776.698.33.166-.351-1.094-.519-1.262 2.658 1.105.524.165-.351zm3.405-.987l-.976-.644-1.622 2.457.365.243.727-1.1.119.077-.338 1.358.385.252.009-.012.318-1.367.129.083c.142.089.269.063.364-.081l.592-.896c.095-.143.071-.274-.072-.37zm-.866.997l-.464-.306.514-.776.463.304-.513.778zm-2.332-2.705l.003-.008-.417-.136-.97 1.884.32-2.094-.422-.136-.001.006-.373 2.966.42.136zM6.384 3.854l.496-.24.32.462.393-.188v-.002L5.807 1.478l-.416.201.76 2.897.001.004.393-.19-.161-.536zm-.493-1.658L6.662 3.3l-.39.187-.381-1.291zm-1.256-.133l-.369.238.846 1.942-1.42-1.573-.372.241.005.006L5.39 5.08l.37-.239-1.121-2.772z" fill="#001F5B"/><g fill="#071C2C"><path d="M16.931 8.776c-.461-1.321-2.989-1.414-3.56-2.245-.157-.23-.419-1.71-.682-1.913-.289-.223-1.031-.121-1.031-.121 0 .205-.05 2.02-.428 2.394-.251.215-.678.308-1.187.575l-.292.298-.324 1.007-.421-.216.151.373-.751.125.425.148-1.223.939.33.026-.436.786c.63-.286.819-.339.819-.339l-.18-.186 1.268-.513s-.095.256-.095.747c0 .07.01.173.035.296.052-.053 1.146-1.142 2.294-1.377L9.87 10.953s1.459.062 1.819-.041c1.127-.524 2.034-1.017 2.743-1.371 1.646.437 2.35 1.007 2.35 1.007l.175-.195c-.083-.062-.688-.479-1.878-.872.354-.14.783-.304.897-.304.263 0 .802.343 1.384.72l.13-.147s.031-.027.058-.084a.397.397 0 0 0 .045-.188c0-.275-.358-.456-.662-.702zm1.063 4.984a.284.284 0 1 0 .286.282.284.284 0 0 0-.286-.282zm0 .507c-.122 0-.222-.102-.222-.225s.1-.221.222-.221c.124 0 .226.098.226.221s-.102.225-.226.225z"/><path d="M18.112 13.978a.096.096 0 0 0-.096-.096h-.136v.323h.062v-.133h.042l.062.133h.067l-.063-.137a.095.095 0 0 0 .062-.09zm-.095.035h-.075v-.07h.075c.019 0 .035.016.035.035 0 .017-.017.035-.035.035z"/></g><path d="M10.553 8.579l-.684.382 1.364.185-.68-.567zm-.884 1.075l.117-.85-1.584 1.07 1.467-.22zm1.336-2.348l-1.146.638.298.715.848-1.353z" fill="#99999A"/><g fill="#001F5B"><path d="M8.587 9.726l.974-.154.101-.576zm2.406-.693l-.523-.305-.37.197zm-.862-.607l.626-.851-.726.41z"/><path d="M12.895 13.53c-3.039 0-3.804-2.084-3.804-2.867 0-.176.013-.32.026-.44l-.699.23.09.198-.545.199-.47.309.955.176-.198.682.409-.119.394.999.471-.06.156.7s.887.614 2.385.749c1.983.176 3.756-.499 3.756-.499s-2.116.828-4.038.624c-1.468-.155-2.427-.753-2.427-.753l-.012-.634-.58.009-.272-.971-.515.241.227-.868-.989-.122.201-.604.236-.475-.317.009 1.325-.985-.576-.227.94-.184-.328-.66.58.332.229-.72c-.695.242-2.194 1.012-3.06 3.273.104.519 1.01 4.115 6.016 4.115 2.158 0 3.735-.818 4.222-1.104l-.521-1.157a9.376 9.376 0 0 1-3.267.604zM8.578 6.408l.4 1.176.709.174.285-.387z"/></g><g fill="#FFF"><path d="M12.5 6.491c-.104-.13-.228-1.447-.228-1.447s-.021 1.342-.101 1.462c-.077.12-.462.342-.462.342s.43-.14.639-.153c.154-.007.643.093.643.093s-.388-.164-.491-.297zm.038 2.4c-2.139.126-3.136 1.965-3.189 2.068.052-.053 1.146-1.142 2.294-1.377l.895-.691zm4.393-.115c-1.2-.134-1.526-.422-1.526-.606 0-.072.062-.092.119-.092.272 0 .631.196.836.415-.122-.313-.839-.683-1.308-.683-.088 0-.217.026-.217.169 0 .294.446.668 1.587.762.613.144 1.249.486 1.126.926a.397.397 0 0 0 .045-.188c0-.276-.358-.457-.662-.703zm-1.587.699l.446.158a.956.956 0 0 0 .179-.091c.006-.012.006-.021-.015-.038a5.007 5.007 0 0 0-.335-.132l-.275.103zm.375-.14c.118.047.283.113.297.114a.168.168 0 0 0 .067 0c.015-.002.111-.053.185-.09-.071-.033-.21-.097-.302-.097-.089.001-.247.073-.247.073zm.44.153c-.003.008 0 .016.016.027.017.011.247.132.264.134.02.001.035.001.055-.002.011-.004.093-.055.146-.092l-.308-.167c-.08.042-.166.089-.173.1zm.218.243c.008-.01.011-.02.005-.03a1.88 1.88 0 0 0-.268-.139c-.026-.005-.041-.005-.062.009a4.26 4.26 0 0 0-.18.097l.359.163c.068-.043.141-.09.146-.1zm.44.127a.165.165 0 0 0 .056-.014.902.902 0 0 0 .103-.077L16.7 9.59c-.066.043-.138.09-.144.1 0 .004.002.008.016.03l.245.138zm.114.028c-.007.016-.01.023-.005.026.007.01.152.106.251.169l.109-.109-.253-.167a.926.926 0 0 0-.102.081zm-.158.047c.004-.008.002-.021-.008-.031a3.053 3.053 0 0 0-.251-.135.187.187 0 0 0-.07.006 1.232 1.232 0 0 0-.135.092l.339.155c.057-.037.119-.079.125-.087zm.059.045c-.009.004-.071.051-.12.088l.306.19.113-.126a5.01 5.01 0 0 0-.237-.158c-.011-.005-.046 0-.062.006z"/><path d="M14.432 9.541c1.646.437 2.35 1.007 2.35 1.007l.175-.195c-.083-.062-.688-.479-1.878-.872.354-.14.783-.304.897-.304.263 0 .802.343 1.384.72l.13-.147c-.508-.351-1.101-.765-1.53-.765-.349 0-.849.216-1.528.556z"/></g></svg>

<svg xmlns="http://www.w3.org/2000/svg" viewBox="0 0 24 16"><path fill="#99999A" d="M11.856,11.363l2.625-1.311c1.799,0.506,2.331,1.188,2.331,1.188l1.028-1.163 c0.058-0.059,0.227-0.271,0.227-0.653c0-0.412-0.431-0.731-0.735-0.947c-0.51-1.345-3.345-1.735-3.555-2.202 c-0.068-0.163-0.483-1.561-0.483-1.561C13.047,3.99,12.319,3.99,12.045,3.99c-0.276,0-0.867,0.093-0.867,0.093 c0,1.008-0.138,2.237-0.281,2.464c0,0-0.511,0.267-1.112,0.483L8.352,6.063l0.377,1.304c-2.419,1.327-3.007,3.644-3.007,3.644 s0.621,4.879,6.74,4.879c3.235,0,5.101-1.562,5.101-1.562l-1.043-2.33c0,0-1.592,0.827-3.625,0.827 c-1.875,0-2.606-0.874-2.876-1.383C11.606,11.488,11.856,11.363,11.856,11.363z"/><g fill="#001F5B"><path d="M11.76 11.106l2.693-1.349c1.825.517 2.352 1.074 2.352 1.074l.834-.939c0 0 .154-.146.154-.469 0-.3-.451-.606-.692-.777-.497-1.351-3.255-1.598-3.56-2.233-.123-.256-.278-.866-.508-1.61-.185-.538-.721-.538-.988-.538-.26 0-.595.053-.595.053 0 .55-.103 2.147-.359 2.423-.062.082-.533.271-1.043.468l.152.103-.156.155L9.751 7.764 9.427 8.771 9.006 8.555l.151.373L8.406 9.053l.425.148-1.223.939.33.026-.436.786c.63-.286.819-.339.819-.339l-.18-.186 1.268-.513c0 0-.095.256-.095.747 0 .07.01.173.035.296.155.767.904 2.348 3.545 2.348 1.91 0 3.386-.669 3.386-.669l.686 1.531c0 0-1.793 1.242-4.504 1.242-5.545 0-6.248-4.36-6.248-4.36.764-2.044 2.05-2.939 2.868-3.318L8.827 7.706 8.804 7.629C6.641 8.822 6.001 11.03 6.001 11.03s.656 4.587 6.46 4.587c2.968 0 4.762-1.376 4.762-1.376l-.839-1.877c0 0-1.568.736-3.49.736-2.862 0-3.285-1.953-3.285-1.953S11.24 11.245 11.76 11.106zM17.548 9.666c.016-.055.019-.108.012-.16C17.566 9.558 17.563 9.611 17.548 9.666c.024-.045.045-.108.045-.188C17.593 9.558 17.572 9.621 17.548 9.666zM8.302 3.654L7.789 1.946 8.95 3.459 9.32 3.347 8.473.527 8.063.651 8.564 2.323 7.414.846 7.046.958 7.892 3.777zM9.659 3c.024.172.127.255.295.232l.91-.124c.171-.023.253-.132.229-.304l-.095-.721-.439.059.086.615L10.08 2.834 9.782.666l.565-.077.08.577.434-.061-.093-.683c-.024-.172-.133-.254-.304-.231l-.91.125C9.388.338 9.309.446 9.333.619L9.659 3zM11.766 3.054l.955.016c.17.004.266-.09.27-.263l.043-2.404c.005-.175-.092-.272-.262-.275L11.817.11c-.168-.004-.263.092-.264.264l-.046 2.404C11.506 2.953 11.595 3.049 11.766 3.054zM11.988.49l.607.01-.04 2.19-.606-.012L11.988.49zM13.654 3.162l.92.165c.172.031.285-.047.316-.218l.469-2.632-.433-.077-.451 2.526-.584-.103.45-2.527L13.91.218 13.441 2.85C13.408 3.021 13.484 3.131 13.654 3.162zM17.146 3.786L17.541 2.95 18.14 3.234 18.303 2.891 17.703 2.606 18.072 1.83 18.77 2.16 18.936 1.809 17.842 1.29 16.58 3.948 17.685 4.472 17.85 4.121zM20.551 2.799l-.976-.644-1.622 2.457.365.243.727-1.1.119.077L18.826 5.19l.385.252L19.22 5.43l.318-1.367.129.083c.142.089.269.063.364-.081l.592-.896C20.718 3.026 20.694 2.895 20.551 2.799zM19.685 3.796l-.464-.306.514-.776.463.304L19.685 3.796zM17.353 1.091L17.356 1.083 16.939.947 15.969 2.831 16.289.737 15.867.601 15.866.607 15.493 3.573 15.913 3.709zM6.384 3.854l.496-.24L7.2 4.076l.393-.188 0-.002L5.807 1.478 5.391 1.679l.76 2.897L6.152 4.58l.393-.19L6.384 3.854zM5.891 2.196l.771 1.104-.39.187L5.891 2.196zM4.635 2.063L4.266 2.301 5.112 4.243 3.692 2.67 3.32 2.911 3.325 2.917 5.39 5.08 5.76 4.841 4.639 2.069z"/></g><g fill="#071C2C"><path d="M16.931 8.776c-.461-1.321-2.989-1.414-3.56-2.245-.157-.23-.419-1.71-.682-1.913-.289-.223-1.031-.121-1.031-.121 0 .205-.05 2.02-.428 2.394-.251.215-.678.308-1.187.575L9.751 7.764 9.427 8.771 9.006 8.555l.151.373L8.406 9.053l.425.148-1.223.939.33.026-.436.786c.63-.286.819-.339.819-.339l-.18-.186 1.268-.513c0 0-.095.256-.095.747 0 .07.01.173.035.296.052-.053 1.146-1.142 2.294-1.377L9.87 10.953c0 0 1.459.062 1.819-.041 1.127-.524 2.034-1.017 2.743-1.371 1.646.437 2.35 1.007 2.35 1.007l.175-.195c-.083-.062-.688-.479-1.878-.872.354-.14.783-.304.897-.304.263 0 .802.343 1.384.72L17.49 9.75c0 0 .031-.027.058-.084.016-.055.019-.108.012-.16.007.052.004.105-.012.16.024-.045.045-.108.045-.188C17.593 9.203 17.235 9.022 16.931 8.776zM17.994 13.76c-.155 0-.283.127-.283.282 0 .157.128.285.283.285.158 0 .286-.128.286-.285C18.28 13.887 18.152 13.76 17.994 13.76zM17.994 14.267c-.122 0-.222-.102-.222-.225s.1-.221.222-.221c.124 0 .226.098.226.221S18.118 14.267 17.994 14.267z"/><path d="M18.112,13.978c0-0.052-0.042-0.096-0.096-0.096H17.88v0.323h0.062v-0.133h0.042l0.062,0.133h0.067 l-0.063-0.137C18.086,14.055,18.112,14.02,18.112,13.978z M18.017,14.013h-0.075v-0.07h0.075c0.019,0,0.035,0.016,0.035,0.035 C18.052,13.995,18.035,14.013,18.017,14.013z"/></g><g fill="#99999A"><path d="M10.553 8.579L9.869 8.961l1.364.185L10.553 8.579zM9.669 9.654l.117-.85L8.202 9.874 9.669 9.654zM11.005 7.306L9.859 7.944l.298.715L11.005 7.306z"/></g><g fill="#001F5B"><path d="M8.587 9.726L9.561 9.572 9.662 8.996zM10.993 9.033L10.47 8.728 10.1 8.925zM10.131 8.426L10.757 7.575 10.031 7.985z"/><path d="M12.895 13.53c-3.039 0-3.804-2.084-3.804-2.867 0-.176.013-.32.026-.44l-.699.23.09.198L7.963 10.85l-.47.309.955.176L8.25 12.017l.409-.119.394.999.471-.06.156.7c0 0 .887.614 2.385.749 1.983.176 3.756-.499 3.756-.499s-2.116.828-4.038.624c-1.468-.155-2.427-.753-2.427-.753l-.012-.634-.58.009-.272-.971-.515.241.227-.868-.989-.122.201-.604.236-.475-.317.009L8.66 9.258 8.084 9.031l.94-.184L8.696 8.187l.58.332.229-.72c-.695.242-2.194 1.012-3.06 3.273.104.519 1.01 4.115 6.016 4.115 2.158 0 3.735-.818 4.222-1.104l-.521-1.157C15.688 13.11 14.436 13.53 12.895 13.53zM8.578 6.408L8.978 7.584 9.687 7.758 9.972 7.371z"/></g><g fill="#FFF"><path d="M12.5 6.491c-.104-.13-.228-1.447-.228-1.447s-.021 1.342-.101 1.462c-.077.12-.462.342-.462.342s.43-.14.639-.153c.154-.007.643.093.643.093S12.603 6.624 12.5 6.491zM12.538 8.891c-2.139.126-3.136 1.965-3.189 2.068.052-.053 1.146-1.142 2.294-1.377L12.538 8.891zM16.931 8.776c-1.2-.134-1.526-.422-1.526-.606 0-.072.062-.092.119-.092.272 0 .631.196.836.415C16.238 8.18 15.521 7.81 15.052 7.81c-.088 0-.217.026-.217.169 0 .294.446.668 1.587.762.613.144 1.249.486 1.126.926.024-.045.045-.108.045-.188C17.593 9.203 17.235 9.022 16.931 8.776zM15.344 9.475l.446.158c.081-.035.17-.078.179-.091.006-.012.006-.021-.015-.038-.013-.011-.211-.086-.335-.132L15.344 9.475zM15.719 9.335c.118.047.283.113.297.114.019.004.049.005.067 0 .015-.002.111-.053.185-.09-.071-.033-.21-.097-.302-.097C15.877 9.263 15.719 9.335 15.719 9.335zM16.159 9.488c-.003.008 0 .016.016.027.017.011.247.132.264.134.02.001.035.001.055-.002.011-.004.093-.055.146-.092l-.308-.167C16.252 9.43 16.166 9.477 16.159 9.488zM16.377 9.731c.008-.01.011-.02.005-.03-.013-.016-.243-.135-.268-.139-.026-.005-.041-.005-.062.009-.021.01-.138.072-.18.097l.359.163C16.299 9.788 16.372 9.741 16.377 9.731zM16.817 9.858c.007.001.031-.004.056-.014.012-.005.066-.046.103-.077l-.276-.177c-.066.043-.138.09-.144.1 0 .004.002.008.016.03L16.817 9.858zM16.931 9.886c-.007.016-.01.023-.005.026.007.01.152.106.251.169l.109-.109-.253-.167C16.986 9.839 16.935 9.879 16.931 9.886zM16.773 9.933c.004-.008.002-.021-.008-.031C16.751 9.89 16.53 9.77 16.514 9.767c-.018-.004-.051.001-.07.006-.009.001-.073.047-.135.092l.339.155C16.705 9.983 16.767 9.941 16.773 9.933zM16.832 9.978c-.009.004-.071.051-.12.088l.306.19.113-.126c-.092-.064-.229-.156-.237-.158C16.883 9.967 16.848 9.972 16.832 9.978z"/><path d="M14.432,9.541c1.646,0.437,2.35,1.007,2.35,1.007l0.175-0.195c-0.083-0.062-0.688-0.479-1.878-0.872 c0.354-0.14,0.783-0.304,0.897-0.304c0.263,0,0.802,0.343,1.384,0.72L17.49,9.75c-0.508-0.351-1.101-0.765-1.53-0.765 C15.611,8.985,15.111,9.201,14.432,9.541z"/></g></svg>
